public/assets/icon/login/account_gray.svg

<?xml version="1.0" encoding="UTF-8"?><svg id="_圖層_1" xmlns="http://www.w3.org/2000/svg" viewBox="0 0 40 30.45"><defs><style>.cls-1{fill:#4d4d4d;}</style></defs><path class="cls-1" d="m12.12,19.72c-5.44,0-9.86-4.42-9.86-9.86S6.69,0,12.12,0s9.86,4.42,9.86,9.86-4.42,9.86-9.86,9.86Zm0-18.35C7.44,1.37,3.64,5.18,3.64,9.86s3.81,8.49,8.49,8.49,8.49-3.81,8.49-8.49S16.8,1.37,12.12,1.37Z"/><path class="cls-1" d="m22.53,28.03c-.26,0-.51-.15-.62-.4-1.18-2.54-3.74-4.19-6.52-4.19h-6.53c-2.78,0-5.34,1.64-6.52,4.19-.16.34-.57.49-.91.33-.34-.16-.49-.57-.33-.91,1.4-3.03,4.45-4.98,7.76-4.98h6.53c3.31,0,6.36,1.96,7.76,4.98.16.34,0,.75-.33.91-.09.04-.19.06-.29.06Z"/><path class="cls-1" d="m39.31,7.05h-11.85c-.38,0-.69-.31-.69-.69s.31-.69.69-.69h11.85c.38,0,.69.31.69.69s-.31.69-.69.69Z"/><path class="cls-1" d="m39.31,12.25h-11.85c-.38,0-.69-.31-.69-.69s.31-.69.69-.69h11.85c.38,0,.69.31.69.69s-.31.69-.69.69Z"/><path class="cls-1" d="m39.31,17.46h-11.85c-.38,0-.69-.31-.69-.69s.31-.69.69-.69h11.85c.38,0,.69.31.69.69s-.31.69-.69.69Z"/><circle class="cls-1" cx="23.23" cy="29.76" r=".69"/><circle class="cls-1" cx=".69" cy="29.76" r=".69"/></svg>

<?xml version="1.0" encoding="UTF-8" standalone="no"?>
<svg
   id="_圖層_1"
   viewBox="0 0 40 39.999999"
   version="1.1"
   sodipodi:docname="account_gray.svg"
   width="40"
   height="40"
   inkscape:version="1.2.1 (9c6d41e4, 2022-07-14)"
   xmlns:inkscape="http://www.inkscape.org/namespaces/inkscape"
   xmlns:sodipodi="http://sodipodi.sourceforge.net/DTD/sodipodi-0.dtd"
   xmlns="http://www.w3.org/2000/svg"
   xmlns:svg="http://www.w3.org/2000/svg">
  <sodipodi:namedview
     id="namedview151"
     pagecolor="#ffffff"
     bordercolor="#000000"
     borderopacity="0.25"
     inkscape:showpageshadow="2"
     inkscape:pageopacity="0.0"
     inkscape:pagecheckerboard="0"
     inkscape:deskcolor="#d1d1d1"
     showgrid="false"
     inkscape:zoom="18.345299"
     inkscape:cx="17.742965"
     inkscape:cy="19.569046"
     inkscape:window-width="1430"
     inkscape:window-height="942"
     inkscape:window-x="0"
     inkscape:window-y="25"
     inkscape:window-maximized="0"
     inkscape:current-layer="_圖層_1" />
  <defs
     id="defs134">
    <style
       id="style132">.cls-1{fill:#4d4d4d;}</style>
  </defs>
  <g
     id="g464"
     transform="translate(0,4.7749999)">
    <path
       class="cls-1"
       d="M 12.12,19.72 C 6.68,19.72 2.26,15.3 2.26,9.86 2.26,4.42 6.69,0 12.12,0 c 5.43,0 9.86,4.42 9.86,9.86 0,5.44 -4.42,9.86 -9.86,9.86 z m 0,-18.35 c -4.68,0 -8.48,3.81 -8.48,8.49 0,4.68 3.81,8.49 8.49,8.49 4.68,0 8.49,-3.81 8.49,-8.49 0,-4.68 -3.82,-8.49 -8.5,-8.49 z"
       id="path136" />
    <path
       class="cls-1"
       d="m 22.53,28.03 c -0.26,0 -0.51,-0.15 -0.62,-0.4 -1.18,-2.54 -3.74,-4.19 -6.52,-4.19 H 8.86 c -2.78,0 -5.34,1.64 -6.52,4.19 C 2.18,27.97 1.77,28.12 1.43,27.96 1.09,27.8 0.94,27.39 1.1,27.05 2.5,24.02 5.55,22.07 8.86,22.07 h 6.53 c 3.31,0 6.36,1.96 7.76,4.98 0.16,0.34 0,0.75 -0.33,0.91 -0.09,0.04 -0.19,0.06 -0.29,0.06 z"
       id="path138" />
    <path
       class="cls-1"
       d="M 39.31,7.05 H 27.46 c -0.38,0 -0.69,-0.31 -0.69,-0.69 0,-0.38 0.31,-0.69 0.69,-0.69 h 11.85 c 0.38,0 0.69,0.31 0.69,0.69 0,0.38 -0.31,0.69 -0.69,0.69 z"
       id="path140" />
    <path
       class="cls-1"
       d="M 39.31,12.25 H 27.46 c -0.38,0 -0.69,-0.31 -0.69,-0.69 0,-0.38 0.31,-0.69 0.69,-0.69 h 11.85 c 0.38,0 0.69,0.31 0.69,0.69 0,0.38 -0.31,0.69 -0.69,0.69 z"
       id="path142" />
    <path
       class="cls-1"
       d="M 39.31,17.46 H 27.46 c -0.38,0 -0.69,-0.31 -0.69,-0.69 0,-0.38 0.31,-0.69 0.69,-0.69 h 11.85 c 0.38,0 0.69,0.31 0.69,0.69 0,0.38 -0.31,0.69 -0.69,0.69 z"
       id="path144" />
    <circle
       class="cls-1"
       cx="23.23"
       cy="29.76"
       r="0.69"
       id="circle146" />
    <circle
       class="cls-1"
       cx="0.69"
       cy="29.76"
       r="0.69"
       id="circle148" />
  </g>
</svg>
